images/prev2.svg

<svg fill="none" height="14" viewBox="0 0 14 14" width="14" xmlns="http://www.w3.org/2000/svg"><path clip-rule="evenodd" d="m7.58958 13.4227c.32544-.3255.32544-.8531 0-1.1785l-4.41075-4.41078 9.65487-.00001c.4602 0 .8333-.37309.8333-.83333s-.3731-.83333-.8333-.83333h-9.65486l4.41074-4.41074c.32544-.32544.32544-.853077 0-1.178514-.32544-.325436-.85308-.325436-1.17851 0l-5.833334 5.833334c-.158123.15812-.239417.36398-.243883.57118-.000259.01205-.000259.0241 0 .03614.002245.10552.024101.20621.062071.29857.040675.09917.101279.19209.181812.27262l5.833334 5.83336c.32544.3254.85307.3254 1.17851 0z" fill="#212121" fill-rule="evenodd"/></svg>

<svg width="14" height="14" viewBox="0 0 14 14" fill="none" xmlns="http://www.w3.org/2000/svg">
<path fill-rule="evenodd" clip-rule="evenodd" d="M7.58958 13.4227C7.91502 13.0972 7.91502 12.5696 7.58958 12.2442L3.17883 7.83342L12.8337 7.83341C13.2939 7.83341 13.667 7.46032 13.667 7.00008C13.667 6.53984 13.2939 6.16675 12.8337 6.16675L3.17884 6.16675L7.58958 1.75601C7.91502 1.43057 7.91502 0.902933 7.58958 0.577496C7.26414 0.25206 6.7365 0.25206 6.41107 0.577496L0.577736 6.41083C0.419613 6.56895 0.338319 6.77481 0.333853 6.98201C0.333594 6.99406 0.333594 7.00611 0.333853 7.01815C0.336098 7.12367 0.357954 7.22436 0.395924 7.31672C0.436599 7.41589 0.497203 7.50881 0.577736 7.58934L6.41107 13.4227C6.73651 13.7481 7.26414 13.7481 7.58958 13.4227Z" fill="#212121"/>
</svg>
